X: 34089
T: Reel De Vaudreuil
R: reel
M: 4/4
K: Amajor
e4|:a2 (3gag edcB|AcBA c2B2|GBGB Bd{cd}cB|AcBA cze2|
a2 (3gag edcB|AcBA cABA|GABc defg|1 abag azez:|2 abag a2z2||
BzGB eze2|ggeg b3b|bb (3aba fzdz|c'zb2 gee2|
BBGB eze2|ggeg b3b|bb (3aba fzdd|edef ezA2|
BBGB eze2|ggeg b3b|bb (3aba fzdz|c'zb2 gee2|
BBGB eze2|ggeg b3b|bb (3aba fzdd|edef eze2||

